assets/icons/wallet.svg

<svg width="65" height="64" viewBox="0 0 65 64" fill="none" xmlns="http://www.w3.org/2000/svg">
<path d="M51.875 34.25C53.1176 34.25 54.125 33.2426 54.125 32C54.125 30.7574 53.1176 29.75 51.875 29.75C50.6324 29.75 49.625 30.7574 49.625 32C49.625 33.2426 50.6324 34.25 51.875 34.25Z" fill="#F6F6F6"/>
<path d="M59.4971 25.2295H48.2695C44.5371 25.2295 41.5 28.2666 41.5 31.9995C41.5 35.7324 44.5371 38.7695 48.2695 38.7695H59.4971C61.0137 38.7695 62.2471 37.5356 62.2471 36.0195V27.9795C62.2471 26.4634 61.0137 25.2295 59.4971 25.2295ZM51.8731 35.7495C49.8057 35.7495 48.1231 34.0674 48.1231 31.9995C48.1231 29.9316 49.8057 28.2495 51.8731 28.2495C53.9404 28.2495 55.6231 29.9316 55.6231 31.9995C55.6231 34.0674 53.9404 35.7495 51.8731 35.7495Z" fill="#F6F6F6"/>
<path d="M40.0029 31.9995C40.0029 27.4395 43.7129 23.7295 48.2725 23.7295H57.7051V13.8311C57.7051 11.2119 55.5742 9.08105 52.9551 9.08105H7.5C4.88086 9.08105 2.75 11.2119 2.75 13.8311V24.2495H8.60742L10.5518 19.6846C10.6699 19.4082 10.9414 19.2285 11.2422 19.2285H16.2571C16.6139 17.5296 18.1227 16.2495 19.9258 16.2495C21.9932 16.2495 23.6758 17.9317 23.6758 19.9995C23.6758 22.0674 21.9932 23.7495 19.9258 23.7495C18.108 23.7495 16.5901 22.4483 16.2495 20.7285H11.7383L9.79394 25.2935C9.67578 25.5698 9.40429 25.7495 9.10351 25.7495H2.75V31.2495H16.2516C16.6002 29.5399 18.1152 28.2495 19.9258 28.2495C21.9932 28.2495 23.6758 29.9316 23.6758 31.9995C23.6758 34.0674 21.9932 35.7495 19.9258 35.7495C18.1152 35.7495 16.6002 34.4592 16.2516 32.7495H2.75V38.2495H9.10352C9.4043 38.2495 9.67579 38.4292 9.79395 38.7056L11.7383 43.2705H16.2495C16.5901 41.5508 18.108 40.2495 19.9258 40.2495C21.9932 40.2495 23.6758 41.9316 23.6758 43.9995C23.6758 46.0674 21.9932 47.7495 19.9258 47.7495C18.1228 47.7495 16.6139 46.4695 16.2571 44.7705H11.2422C10.9414 44.7705 10.6699 44.5908 10.5518 44.3145L8.60743 39.7495H2.75V50.168C2.75 52.7871 4.88086 54.918 7.5 54.918H52.9551C55.5742 54.918 57.7051 52.7871 57.7051 50.168V40.2695H48.2725C43.7129 40.2695 40.0029 36.5596 40.0029 31.9995Z" fill="#F6F6F6"/>
<path d="M19.9248 46.25C21.1674 46.25 22.1748 45.2426 22.1748 44C22.1748 42.7574 21.1674 41.75 19.9248 41.75C18.6822 41.75 17.6748 42.7574 17.6748 44C17.6748 45.2426 18.6822 46.25 19.9248 46.25Z" fill="#F6F6F6"/>
<path d="M19.9248 22.25C21.1674 22.25 22.1748 21.2426 22.1748 20C22.1748 18.7574 21.1674 17.75 19.9248 17.75C18.6822 17.75 17.6748 18.7574 17.6748 20C17.6748 21.2426 18.6822 22.25 19.9248 22.25Z" fill="#F6F6F6"/>
<path d="M19.9248 34.25C21.1674 34.25 22.1748 33.2426 22.1748 32C22.1748 30.7574 21.1674 29.75 19.9248 29.75C18.6822 29.75 17.6748 30.7574 17.6748 32C17.6748 33.2426 18.6822 34.25 19.9248 34.25Z" fill="#F6F6F6"/>
</svg>

<svg width="65" height="64" fill="none" xmlns="http://www.w3.org/2000/svg"><path d="M51.875 34.25a2.25 2.25 0 1 0 0-4.5 2.25 2.25 0 0 0 0 4.5Z" fill="#F6F6F6"/><path d="M59.497 25.23H48.27A6.778 6.778 0 0 0 41.5 32a6.778 6.778 0 0 0 6.77 6.77h11.227a2.753 2.753 0 0 0 2.75-2.75v-8.04a2.753 2.753 0 0 0-2.75-2.75Zm-7.624 10.52a3.754 3.754 0 0 1-3.75-3.75 3.754 3.754 0 0 1 3.75-3.75 3.754 3.754 0 0 1 3.75 3.75 3.754 3.754 0 0 1-3.75 3.75Z" fill="#F6F6F6"/><path d="M40.003 32c0-4.56 3.71-8.27 8.27-8.27h9.432V13.83c0-2.62-2.13-4.75-4.75-4.75H7.5c-2.62 0-4.75 2.13-4.75 4.75V24.25h5.857l1.945-4.565a.751.751 0 0 1 .69-.456h5.015a3.756 3.756 0 0 1 3.669-2.98 3.754 3.754 0 0 1 3.75 3.75 3.754 3.754 0 0 1-3.75 3.75 3.755 3.755 0 0 1-3.676-3.02h-4.512l-1.944 4.565a.751.751 0 0 1-.69.456H2.75v5.5h13.502c.348-1.71 1.863-3 3.674-3a3.754 3.754 0 0 1 3.75 3.75 3.754 3.754 0 0 1-3.75 3.75 3.756 3.756 0 0 1-3.674-3H2.75v5.5h6.354c.3 0 .572.18.69.456l1.944 4.564h4.512a3.755 3.755 0 0 1 3.676-3.02 3.754 3.754 0 0 1 3.75 3.75 3.754 3.754 0 0 1-3.75 3.75 3.756 3.756 0 0 1-3.669-2.98h-5.015c-.3 0-.572-.18-.69-.456L8.607 39.75H2.75v10.419c0 2.62 2.13 4.75 4.75 4.75h45.455c2.62 0 4.75-2.13 4.75-4.75V40.27h-9.432c-4.56 0-8.27-3.71-8.27-8.27Z" fill="#F6F6F6"/><path d="M19.925 46.25a2.25 2.25 0 1 0 0-4.5 2.25 2.25 0 0 0 0 4.5ZM19.925 22.25a2.25 2.25 0 1 0 0-4.5 2.25 2.25 0 0 0 0 4.5ZM19.925 34.25a2.25 2.25 0 1 0 0-4.5 2.25 2.25 0 0 0 0 4.5Z" fill="#F6F6F6"/></svg>
